packages/katcn/src/icons/svg/rate.svg

<svg width="24" height="24" viewBox="0 0 24 24" fill="none" xmlns="http://www.w3.org/2000/svg">
<path d="M7.47528 22C6.97564 22 6.47599 21.8 5.97635 21.5C5.17691 20.9 4.67726 19.9 4.87712 18.9L5.4767 15L2.77861 12.2C2.0791 11.5 1.77932 10.4 2.17903 9.4C2.47882 8.4 3.27826 7.8 4.27755 7.6L8.07486 7L9.77366 3.5C10.1734 2.6 11.0727 2 12.072 2C13.0713 2 13.9707 2.6 14.4703 3.5L16.0692 7L19.7666 7.6C20.7659 7.7 21.5653 8.4 21.8651 9.4C22.1649 10.4 21.965 11.4 21.2655 12.2L18.5674 15L19.167 18.9C19.3669 19.9 18.9671 21 18.0678 21.5C17.2684 22.1 16.2691 22.1 15.3697 21.7L12.072 19.8L8.77436 21.6C8.37465 21.9 7.97493 22 7.47528 22ZM12.072 4C11.9721 4 11.6723 4 11.5724 4.4L9.67373 8.4C9.47387 8.7 9.17408 8.9 8.87429 8.9L4.57734 9.6C4.27755 9.6 4.17762 9.9 4.07769 10C4.07769 10.1 3.97776 10.4 4.27755 10.7L7.37535 13.8C7.57521 14 7.67514 14.3 7.67514 14.7L6.97564 19.1C6.87571 19.5 7.1755 19.7 7.27542 19.8C7.37535 19.9 7.57521 20 7.875 19.8L11.6723 17.7C11.9721 17.5 12.3718 17.5 12.6716 17.7L16.4689 19.8C16.7687 19.9 16.9686 19.8 17.0685 19.8C17.1684 19.7 17.3683 19.5 17.3683 19.1L16.6688 14.7C16.5688 14.4 16.6688 14.1 16.9686 13.8L20.0664 10.7C20.1663 10.5 20.0664 10.1 20.0664 10C20.0664 9.9 19.8665 9.6 19.5667 9.6L15.2698 9C14.97 9 14.6702 8.7 14.4703 8.4L12.5717 4.4C12.4717 4 12.172 4 12.072 4Z" fill="black"/>
</svg>

<svg xmlns="http://www.w3.org/2000/svg" fill="none" viewBox="0 0 24 24"><path fill="#000" d="M7.475 22c-.5 0-.999-.2-1.499-.5-.8-.6-1.299-1.6-1.099-2.6l.6-3.9-2.698-2.8c-.7-.7-1-1.8-.6-2.8.3-1 1.1-1.6 2.099-1.8L8.075 7l1.699-3.5c.4-.9 1.299-1.5 2.298-1.5s1.899.6 2.398 1.5l1.6 3.5 3.697.6c.999.1 1.798.8 2.098 1.8s.1 2-.6 2.8L18.568 15l.6 3.9c.2 1-.2 2.1-1.1 2.6-.799.6-1.798.6-2.697.2l-3.298-1.9-3.298 1.8c-.4.3-.8.4-1.299.4m4.597-18c-.1 0-.4 0-.5.4l-1.898 4c-.2.3-.5.5-.8.5l-4.297.7c-.3 0-.4.3-.5.4 0 .1-.1.4.2.7l3.098 3.1q.3.3.3.9l-.7 4.4c-.1.4.2.6.3.7s.3.2.6 0l3.797-2.1c.3-.2.7-.2 1 0l3.797 2.1c.3.1.5 0 .6 0 .1-.1.3-.3.3-.7l-.7-4.4q-.15-.45.3-.9l3.097-3.1c.1-.2 0-.6 0-.7s-.2-.4-.5-.4L15.27 9c-.3 0-.6-.3-.8-.6l-1.898-4c-.1-.4-.4-.4-.5-.4"/></svg>
